X:31
T:score124
L:1/8
Q:1/4=96
M:4/4
I:linebreak $
K:A
 a4 (3=g=fg (3fgf | edc=c- cd_e=e- |$ ecA=G- G=FEE- | E2 z2 z4 | z8 |$ a4 (3=g=fg (3fgf | %6
 edc=c- cd_e=e- | ecA=G- G=FEA- | A6 z2 |] %9
